X:1
T:An die ferne Geliebte.
T:Ludwig von Beethoven
T:Copyright © 2009 by the Choral Public Domain Library (http://www.cpdl.org) Edition may be freely distributed, duplicated, performed, or recorded.
T:An die ferne Geliebte.
T:Copyright © 2009 by the Choral Public Domain Library (http://www.cpdl.org) Edition may be freely distributed, duplicated, performed, or recorded.
T:Copyright © 2009 by the Choral Public Domain Library (http://www.cpdl.org) Edition may be freely distributed, duplicated, performed, or recorded.
T:Copyright © 2009 by the Choral Public Domain Library (http://www.cpdl.org) Edition may be freely distributed, duplicated, performed, or recorded.
T:Copyright © 2009 by the Choral Public Domain Library (http://www.cpdl.org) Edition may be freely distributed, duplicated, performed, or recorded.
T:Copyright © 2009 by the Choral Public Domain Library (http://www.cpdl.org) Edition may be freely distributed, duplicated, performed, or recorded.
T:Copyright © 2009 by the Choral Public Domain Library (http://www.cpdl.org) Edition may be freely distributed, duplicated, performed, or recorded.
T:Copyright © 2009 by the Choral Public Domain Library (http://www.cpdl.org) Edition may be freely distributed, duplicated, performed, or recorded.
T:Copyright © 2009 by the Choral Public Domain Library (http://www.cpdl.org) Edition may be freely distributed, duplicated, performed, or recorded.
T:Copyright © 2009 by the Choral Public Domain Library (http://www.cpdl.org) Edition may be freely distributed, duplicated, performed, or recorded.
T:Copyright © 2009 by the Choral Public Domain Library (http://www.cpdl.org) Edition may be freely distributed, duplicated, performed, or recorded.
T:Copyright © 2009 by the Choral Public Domain Library (http://www.cpdl.org) Edition may be freely distributed, duplicated, performed, or recorded.
T:Copyright © 2009 by the Choral Public Domain Library (http://www.cpdl.org) Edition may be freely distributed, duplicated, performed, or recorded.
T:Copyright © 2009 by the Choral Public Domain Library (http://www.cpdl.org) Edition may be freely distributed, duplicated, performed, or recorded.
T:Copyright © 2009 by the Choral Public Domain Library (http://www.cpdl.org) Edition may be freely distributed, duplicated, performed, or recorded.
T:Copyright © 2009 by the Choral Public Domain Library (http://www.cpdl.org) Edition may be freely distributed, duplicated, performed, or recorded.
T:Copyright © 2009 by the Choral Public Domain Library (http://www.cpdl.org) Edition may be freely distributed, duplicated, performed, or recorded.
T:Copyright © 2009 by the Choral Public Domain Library (http://www.cpdl.org) Edition may be freely distributed, duplicated, performed, or recorded.
T:Copyright © 2009 by the Choral Public Domain Library (http://www.cpdl.org) Edition may be freely distributed, duplicated, performed, or recorded.
T:Copyright © 2009 by the Choral Public Domain Library (http://www.cpdl.org) Edition may be freely distributed, duplicated, performed, or recorded.
T:Copyright © 2009 by the Choral Public Domain Library (http://www.cpdl.org) Edition may be freely distributed, duplicated, performed, or recorded.
T:Copyright © 2009 by the Choral Public Domain Library (http://www.cpdl.org) Edition may be freely distributed, duplicated, performed, or recorded.
T:Copyright © 2009 by the Choral Public Domain Library (http://www.cpdl.org) Edition may be freely distributed, duplicated, performed, or recorded.
T:Copyright © 2009 by the Choral Public Domain Library (http://www.cpdl.org) Edition may be freely distributed, duplicated, performed, or recorded.
T:Copyright © 2009 by the Choral Public Domain Library (http://www.cpdl.org) Edition may be freely distributed, duplicated, performed, or recorded.
T:Copyright © 2009 by the Choral Public Domain Library (http://www.cpdl.org) Edition may be freely distributed, duplicated, performed, or recorded.
T:Copyright © 2009 by the Choral Public Domain Library (http://www.cpdl.org) Edition may be freely distributed, duplicated, performed, or recorded.
T:Copyright © 2009 by the Choral Public Domain Library (http://www.cpdl.org) Edition may be freely distributed, duplicated, performed, or recorded.
T:Copyright © 2009 by the Choral Public Domain Library (http://www.cpdl.org) Edition may be freely distributed, duplicated, performed, or recorded.
C:Ludwig von Beethoven
Z:Copyright © 2009 by the Choral Public Domain Library (http://www.cpdl.org)
Z:Edition may be freely distributed, duplicated, performed, or recorded.
%%score 1 { ( 2 4 ) | ( 3 5 ) }
L:1/8
Q:1/4=60
M:3/4
K:C
V:1 treble nm="Voice" snm="Voice"
V:2 treble nm="Piano" snm="Pno."
V:4 treble 
V:3 bass 
V:5 bass 
V:1
"^I. Ziemlich langsam und mit Ausdruck." z2 G2 G2 | G3 A Bc | c2 E z FE | DF A2 A2 | D2 G3 A | %5
w: Auf dem|Hü- gel sitz ich|spä- hend in das|blau- e Ne- bel-|land, nach den|
 G2 ^F2 =FG | F2 E2 cB | (B2 A)G FD | C2 z2 z2 | z6 | z2 G2 G2 | G3 A Bc | c2 E z FE | DF A2 A2 | %14
w: fer- nen Trift- en|se- hend, wo ich|dich, _ Ge- lieb- te,|fand.||Weit bin|ich von dir ge-|schied- en, tren- nend|lie- gen Berg und|
 D2 G3 A | G2 ^F2 =FG | F2 E2 cB | (B2 A)G FD | C2 z2 z2 | z6 | z2 G2 G2 | G3 A Bc | c2 E z FE | %23
w: Tal zwi- schen|uns und un- serm|Frie- den, un- serm|Glück _ und un- srer|Qual.||Ach, den|Blick kannst du nicht|se- hen, der zu|
 DF (A ^G2) A | D2 G3 A | G2 ^F z =FG | F2 E z cB | (B2 A)G FD | C2 z2 z2 | z6 | z2 G2 G2 | %31
w: dir so glü- * hend|eilt, und die|Seuf- zer, sie ver-|we- hen in dem|Rau- * me, der uns|teilt.||Will denn|
 G3 A Bc | c2 E z FE | DF (A2 ^G)A | D2 G3 A | G2 ^F2 (3(=FA)G | F2 E2 cB | (B2 A)G FD | C2 z2 z2 | %39
w: nichts mehr zu dir|drin- gen, nichts der|Lie- be Bo- * te|sein? Sin- gen|will ich, Lie- * der|sin- gen, die dir|kla- * gen mei- ne|Pein!|
 z6 | z2 G2 G2 | G3 A Bc | c2 E z FE | DF A2 A2 |"^nach und nach geschwinderstringendo" D2 G3 A | %45
w: |Denn vor|Lie- des klang ent-|wei- chet je- der|Raum und je- de|Zeit, und ein|
 (G2 ^F)F =FG | F2 E2 cB | (B2 A)G FD | C2 z2 z2 | z6 | z6 | z6 | z6 || %53
w: lie- * bend Herz er-|rei- chet, was ein|lie- * bend Herz ge-|weiht!|||||
[K:E][M:6/8]"^Ein wenig geschwinde.""^II. Poco Allegretto."[Q:1/4=100] z6 | z6 | z6 | z3 E2 F | %57
w: |||Wo die|
 G3- GGF | E2 z z FG | A3- AAG | F3 AAG | F3 z3 | z3 F2 G | A3- AAG | F3 G2 A | B3- BBA | G3 BBA | %67
w: Ber- * ge so|blau aus dem|neb- * li- gen|Grau schau- en her-|ein,|wo die|Son- * ne ver-|glüht, wo die|Wol- * ke um-|zieht, möch- te ich|
 G3 z2 z | z2 z BBA | G3 z2 z | z6 | z2 z E2 E ||[K:A] E3- EEE | E3 E2 E | E3- EEE | E3 EEE | %76
w: sein!|möch- te ich|sein!||Dort im|ru- * hi- gen|Tal schwei- gen|Schmer- * zen und|Qual. Wo im Ge-|
 E3 E2 E | E3- EEE | E3 E2 E | E3- EEE | E3 EEE | E3 z2 z | z2 z EEE | %83
w: stein still die|Pri- * mel dort|sinnt, weht so|lei- * se der|Wind, möch- te ich|sein!|möch- te ich|
"^nach und nach geschwinderstringendo" E3 z3 ||[K:E]"^Ziemlich geschwind." z6 | %85
w: sein!||
"^Assai Allegro."[Q:1/4=120] z2 z E2 F | G3- GGF | E3 F2 G | A3- AAG | F3 AAG | F3 z2 z | %91
w: Hin zum|sin- * ni- gen|Wald drängt mich|Lie- * bes ge-|walt, in- ne- re|Pein,|
"^Poco Adagio."[Q:1/4=60] z2 z A>A=G | F3"^Tempo I." F2 ^G | A3- AAG | F3 G2 A | B3- BBA | G3 BBA | %97
w: in- ne- re|Pein. Ach, mich|zög's _ nicht von|hier, könnt ich,|Trau- * te, bei|dir e- wig- lich|
 G3 z2 z | z2"^Poco Adagio."[Q:1/4=60] z B>BA ||[K:A][M:4/4]"^Allegro assai."[Q:1/4=120] G2 z2 z4 | %100
w: sein!|e- wig- lich|sein!|
 z8 ||[K:F]"^III." z8 | z8 | A z ^G z A z F z | A z B z c2 A z | A z G z F z E z | D z E z C4 | %107
w: |||Leich- te Seg- ler|in den Hö- hen,|und du Bäch- lein|klein und schmal,|
 C z E z G z E z | G z A z _B2 =B z | c z c z _B z A z | !>!B z G z F4 | z8 | z8 | %113
w: könnt mein Lieb- chen|ihr er- spä- hen|grüßt sie mir viel-|tau- send- mal.|||
 A z ^G z A z F z | A z B z c2 A z | A2 G z F2 E2 | D2 E2 C4 | C2 E2 G2 E2 | G2 A2 _B2 =B z | %119
w: Seht ihr Wol- ken|sie dann ge- hen|sin- nend in dem|stil- len Tal,|laßt mein Bild vor|ihr ent- ste- hen|
 c z c z _B z A z | B z G z F4 | z8 | z8 | _A z G z A z F z | _A z B z c2 A z | _A2 G2 F2 _E2 | %126
w: in dem luft- gen|Him- mels- saal.|||Wird sie an den|Bü- schen ste- hen,|die nun herbst- lich|
 D2 _E2 C4 | C2 =E2 G2 E2 | G2 _A2 B2 =B2 |"^ritard." c2 c2 _B2 _A2 | B2 G2 F4 | z8 | z8 | %133
w: falb und kahl,|klagt ihr, wie mir|ist ge- sche- hen,|klagt ihr, Vög- lein,|mei- ne Qual!|||
 _A z G z A z F z | _A z B z c2 A z | _A z G z F z _E z | D z _E z C4 | C2 =E2 G2 E z | %138
w: Stil- le We- ste,|bringt im We- hen|hin zu mei- ner|Her- zens- wahl|mei- ne Seuf- zer,|
 G2 _A2 B2 =B2 | c2 c2"^ritard." _B2 _A2 | B2 G2 F4 | z8 | z8 | _A z G z A z F z | _A2 B2 c2 A z | %145
w: die ver- ge- hen|wie der Son- ne|letz- ter Strahl.|||Flüstr' ihr zu mein|Lie- bes- fle- hen,|
 _A z G z F z _E z | D z _E z C4 | C2 =E2 G2 E2 | G2 _A2 B2 =B2 |"^ritard." c2 c2 _B2 _A2 | %150
w: laß sie, Bäch- lein|klein und schmal,|treu in dei- nen|Wo- gen se- hen|mei- ne Trä- nen|
 B2 G2"^a tempo" (F2 _A2-) | A2 _AA (G2 c2-) | %152
w: oh- ne Zahl, _|_ oh- ne Zahl! _|
[M:6/8]"^IV. Nicht zu geschwinde, angenehm und mit viel Empfindung." c6- | c6- | c3 c2 P=A | %155
w: _||* Die- se|
 d2 B c2 A | B2 G B2 G | c2 A B2 G | A3 A2 G | F2 E (DG)E | F2 C z2 z | z2 c- c2 A | G2 A (BG)A | %163
w: Wol- ken in den|Hö- hen, die- ser|Vög- lein mun- trer|Zug wer- den|dich, o Huld- * in,|se- hen.|Nehmt _ mich|mit im leich- * ten|
 F2 z z2 z | z6 | z2 z c2 A | d2 B c2 A | B2 G B2 G | c2 A B2 G | A3 A2 G | F2 E (DG)E | %171
w: Flug!||Die- se|Wes- te wer- den|spie- len, scherz- end|dir um Wang und|Brust, in den|seid- nen Lock- * en|
 F2 C z2 z | z2 c- c2 A | G2 A (BG)A | F2 z z2 z | z6 | z2 z c2 A | d2 B c2 A | B2 G B2 G | %179
w: wüh- len.|Teilt' _ ich|mit euch die- * se|Lust!||Hin zu|dir von je- nen|Hü- geln em- sig|
 c2 A B2 G | A3 A2 G | F2 E (DG)E | F2 C z2 z | z2 c- c2 A | G2 A (BG)A | F2 z c2 A | %186
w: die- ses Bäch- lein|eilt. Wird ihr|Bild sich in _ dir|spie- geln,|fließ _ zu-|rück dann un- * ver-|weilt! fließ zu-|
"^Nach und nach" G2 A (BG)A |"^geschwinder." G2 A A2 A | ^G2 z z3 || %189
w: rück dann un- * ver-|weilt, ja un- ver-|weilt!|
[K:A][M:4/4]"^V. Vivace."[Q:1/4=120] z8 | z8 | z8 |"^Poco Adagio."[Q:1/4=60] z8 | z8 | z8 | %195
w: ||||||
"^Tempo I." z8 | z8 | z8 | z8 | z8 | z8 | z8 | z4 z2 e2 | e2 dd c2 BB | A2 FF E2 E2 | F2 GG A2 GG | %206
w: |||||||Es|keh- ret der Mai- en, es|blü- het die Au. Die|Lüf- te, sie we- hen so|
 A2 BB A2 A2 | G2 FF G2 AA | G4 F2 z2 | z4 z2 F2 | F2 EE D2 EE | F2 =GG A2 F2 | F2 EE D2 FF | %213
w: mil- de, so lau, ge-|schwät- zig die Bä- che nun|rin nen.|Die|Schwal- be, sie keh- ret zum|wirt- li- chen Dach, sie|baut sich so em- sig ihr|
 (dc)BA ^G2 B2 | B2 GE c2 AE | c4 B2 (Bc) | d2 BG c2 AE | B4 A2 z2 | z8 | z8 | z4 z2 e2 | %221
w: bräut- * lich Ge- mach, die|Lie- be soll woh- nen da|drin- nen, die _|Lie- be soll woh- nen da|drin- nen.|||Sie|
 e2 dd c2 BB | A2 FF E2 E2 | F2 GG A2 GG | A2 BB A2 A2 | G2 FF G2 AA | G4 F2 z2 | z4 z2 F2 | %228
w: bringt sich ge- schäf- tig von|Kreuz und von Quer manch|wei- cher- es Stück zu dem|Braut- bett hie- her, manch|wär- men- des Stück für die|Klei- nen.|Nun|
 F2 EE D2 EE | F2 =GG A2 F2 | F2 EE D2 FF | (dc)BA ^G2 B2 | B2 GE c2 AE | c4 B2 (Bc) | %234
w: woh- nen die Gat- ten bei-|sam- men so treu, was|Win- ter ge- schied- en ver-|band _ nun der Mai, was|lie- bet, das weiß er zu|ei- nen, was _|
 d2 BG c2 AE | B4 A2 z2 | z8 | z8 | z4 z2 e2 | e2 dd c2 BB | A2 FF E2 E2 | F2 GG A2 GG | %242
w: lie- bet, das weiß er zu|ei- nen.|||Es|keh- ret der Mai- en, es|blü- het die Au. Die|Lüf- te, sie we- hen so|
 A2 BB A2 A2 |"^ritard." G2 FF G2 AA | G4 F2 z2 | z4 z2 F2 | F2 EE D2 EE | F2 =GG A2 F2 | %248
w: mil- de, so lau. Nur|ich kann nicht zie- hen von|hin- nen.|Wenn|al- les, was lie- bet, der|Früh- ling ver- eint, nur|
 F2 EE D2 Fd | (dc)BA ^G2 B2 | B2 GE c2 AE | (c4 B2) (Bc) | d2 BG c2 AE | B4 A2 z2 | %254
w: un- ser- er Lie- be kein|Früh- * ling er- scheint und|Trä- nen sind all ihr Ge-|win- nen, und _|Trä- nen sind all ihr Ge-|win- nen,|
 z2 z G =c2 AE | B4"^Adagio."[Q:1/4=60] A2 z2 | z8 || %257
w: ja all ihr Ge-|win- nen.||
[K:C][M:2/4]"^VI. Andante con moto, cantabile."[Q:1/4=80][Q:1/4=80] z4 | z4 | z4 | z4 | z4 | z4 | %263
w: ||||||
 z4 | z4 | A (A/B/) cG | G>F FE | DE FG | (AG/)F/ (ED) | DD D>D | D>E ED | FE AG | G>F (FE) | %273
w: ||Nimm sie _ hin denn,|die- se Lie- der,|die ich dir, Ge-|lieb- * te sang, _|sin- ge sie dann|A- bends wie- der|zu der Lau- te|sü- ßem Klang! _|
 z2 z F/G/ | AA G>G | FF z E/E/ | EE EE | E2 z E/^G/ | BB B>D | DC z c/c/ | cc d>c | %281
w: Wenn das|Dämm- rungs- rot dann|zie- het nach dem|stil- len blau- en|See, und sein|letz- ter Strahl ver-|glü- het hin- ter|je- ner Ber- ges-|
"^Molto Adagio."[Q:1/4=60] B4 | G>^G (GA) |"^Tempo I." A (A/B/) c=G/G/ | G>F FE | DE FG | %286
w: höh,|und du singst, _|und du _ singst, _ was|ich ge- sung- gen,|was mir aus der|
 (AG/)F/ (ED) | DD D>D | D>E ED | FE AG | G>F (FE) | z2 G2 | F>F (EG/)G/ | Bc d2- || %294
w: vol- * len Brust _|oh- ne Kunst- ge-|präng er- klun- gen,|nur der Sehn- sucht|sich be- wußt, _|nur,|nur der Sehn- * sucht|sich be- wußt:|
[M:3/4]"^Ziemlich langsam und mit Ausdruck."[Q:1/4=60] d!fermata!G z2 z2 | z6 | z2 G2 G2 | %297
w: _ _||dann vor|
 G3 A Bc | c2 E z FE | DF A2 A2 |"^Nach und nach geschwinder." D2 G3 A | (G2 ^F)F =FG | F2 E2 cB | %303
w: die- sen Lied- ern|wei- chet, was ge-|schie- den uns so|weit, und ein|lie- * bend Herz er-|rei- chet, was ein|
 B2 AG FD |"^Allegro molto e con brio."[Q:1/4=120] C2 z2 z2 | z6 | z2 z2 GA | (G2 ^F)F =FG | %308
w: lie- * bend Herz ge-|weiht,||und ein|lie- * bend Herz er-|
 F2 E2 GA | G2 ^F2 =FG | (F2 E2) cB | (B2 A)G FD | C2 G4 | z2 G2 G2 | (G2 c2) B2 | (A2 G2) B2 | %316
w: rei- chet, was ein|lie- * bend, ein|lie- * bend, ein|lie- * bend Herz ge-|weiht! Dann,|dann vor|die- * sen|Lie- * dern|
 c2 c2 z2 | z2 G2 G2 | (G2 c2) B2 | (A2 G2) c2 | !fermata!B2 G3 A | (G2 ^F)F =FG | F2 E2 z2 | z6 | %324
w: wei- chet,|was ge-|schie- * den|uns _ so|weit, und ein|lie- * bend Herz er-|rei- chet,||
 z2 z2 GA | (G2 ^F2) (=FG) | (F2 E2) (cB) | (B2 A)A !>!dc | !fermata!B2 c2 z2 | z2 e2 e2 | %330
w: was ein|lie- * bend _|Herz, _ ein *|lie- * bend Herz ge-|weiht, was,|was ein|
 (e3 d) (cA) | (A2 Gc) (ce) | (e4 d)e | c2 z2 z2 | z6 | z6 | z6 | z6 | z6 | z6 | z6 | z6 |] %342
w: lie- * bend, _|lie- * * bend _|Herz _ ge|weiht!|||||||||
V:2
 [G,CEG]2 (G2 F2) | E2 [E,CE]2 z2 | z2 [E,A,CE]2 z [E,CE] | (DF A2) A2 | D2 (G3 A | G2 ^F2) (=FG) | %6
 ([DF]2 =E2)!<(! [CGc]!<)![CGB] |!>(! ([CGB]2 [CFA])!>)![CEG][B,DF][F,B,D] | %8
 [E,C]2"^Ausdrucksvoll."{/G} !>!g3 c | B2{/G} !>!g3"^dim." (B | d[DF])([DF][^CE][EG][DF]) | %11
 [=CE] z [G,E]z/[G,E]/ [G,E] z | z2 [CE]z/[CE]/ [CFc][CE] | [A,D] z [A,D]z/[A,D]/ [A,CDA]2 | %14
 [B,D] z [DG]z/[DG]/ [EG] z | z2 [_E^F]z/[EF_e]/ [D=Fd] z | z2 =Ez/d/ [Cc][CB] | %17
!>(! (B2 A)!>)!G FD | [E,C]2{/G} !>!g3 c | [DFB]2{/G} !>!g3 (B | d[DF])([DF][^CE][EG][DF]) | %21
 [=CE]/G,/[CE]/G,/ [CE]/G,/[CE]/G,/ [CE]/G,/[CE]/G,/ | %22
 [CE]/A,/[CE]/A,/ [CE]/A,/[CE]/A,/ [CF]/A,/[CE]/G,/ | %23
 D/A,/[DF]/"^cresc."A,/ [DA]/A,/[D^G]/^G,/ [DG]/G,/[CDA]/A,/ | %24
!p! [B,D]/=G,/[B,D]/G,/ =G/D/G/D/ G/E/A/E/ | G2 ([_E^F][F_e] d/)z/G | G2 (=E[Dd] c/)z/B | B2 AGFD | %28
 [E,C]2{/G} !>!g3 c | [DFB]2{/G} !>!g3"^dim." (B | d[DF])([DF][^CE][EG][DF]) | %31
 [=CE]2[K:bass] [E,G,CE]3 [E,G,CE] |!<(! [E,A,CE]2 [E,A,CE]2!<)!!>(! [F,CF]!>)![E,CE] | %33
 [D,A,D]2[K:treble]!p! [A,DA]3 [A,CDA] | [B,D]2 [DG]2 [EG]2 | [C_EG]2 [CE^F]2 [G,D=F]2 | %36
 [DF]2 [C=E]2 cB |!p! ([CGB]2 [CFA])[CEG][B,DF][F,B,D] | [E,C] z"^sempre"!p! g2- (3:2:2g2 c | %39
 B2 (3g^fg (3agB | (3dEF ([DF][^CE][EG][DF]) | %41
 [=CE]/[CE]/ z/ [E,G,CE]/ z/ [E,G,CE]/z/[E,G,CE]/ z/ [E,G,CE]/z/[E,G,CE]/ | %42
 z/ [E,A,CE]/z/[E,A,CE]/ z/ [E,A,CE]/z/[E,CE]/ z/ [F,CF]/z/[E,CE]/ | %43
 z/ [D,A,D]/z/[A,DF]/ z/ [A,DA]/z/[A,DA]/ z/ [A,CDA]/z/[A,CDA]/ | %44
 z/ [B,D]/z/[B,D]/ z/ [G,DG]/z/[G,DG]/ z/ [G,EG]/z/[A,EA]/ | %45
 z/ [C_EG]/z/[CEG]/ z/ [CE^F]/z/[CEF]/ z/"^-" [G,D=F]/z/"^-"[G,DF]/ | %46
 z/ [G,DF]/"^-"z/[G,DF]/"^-" z/ [G,C=E]/z/"^-"[G,CE]/ [CGc]"^-"[CGB] | %47
"^-" [CGB][CGB]"^-" [CFA][CEG]"^do" [B,DF][F,B,D] | [E,C] z{/G} !>!g3 c | B2 g/^f/g/f/ a/g/B/c/ | %50
 e/d/=F/G/"^dim."!p! E2 [E,G,CE]2 | !fermata![E,E]6 | z2 (.[E,E]2 .[E,E]2) || %53
[K:E][M:6/8] !fermata![E,^G,E]3 z [G,B,E][B,DF] | [B,EG]3 [G,B,E]2 [B,DF] | %55
 [B,EG]3- [B,EG][B,EG][B,DF] | [G,B,E]2 z z [G,B,E][B,DF] | [B,EG]3- [B,EG][B,EG][B,DF] | %58
 [G,B,E]2 z z [B,DF][B,EG] | [B,FA]3- [B,FA][B,FA][B,EG] | [B,DF]3!pp! [B,FA][B,FA][B,EG] | %61
 [B,DF]3 [AB][AB][GB] | [FB]3 z [B,DF][B,EG] | [B,FA]3- [B,FA][B,FA][B,EG] | [B,DF]3 z [EG][EFA] | %65
!<(! [EGB]3-!<)! [EGB]!>(![EGB]!>)![EFA] |!<(! [EG]3!<)! [B,EB]!>(![B,FB][B,DA]!>)! | %67
 [GB]3!pp! [EB][FB][DAB] | [GB]3 [B,EB][B,FB][B,DA] | [B,EG]3 z2 z | B(BA) G(e=d) | %71
 c[Ec][=DB] [CA][CA][DB] ||[K:A] [Ec]3- [Ec][Ec][DB] | [CA]3!pp! [GB]2 [Ac] | [Bd]3- [Bd][Bd][Ac] | %75
 [GB]3 [Bd][Bd][Ac] | [GB]3 [GB]2 [Ac] | [Bd]3- [Bd][Bd][Ac] | [GB]3 [Ac]2 [Bd] | %79
!pp! [ce]3- [ce][ce][Bd] | [Ac]3!pp! [ce][ce][Bd] | [Ac]3!pp! [Ece][Ece][EBd] | %82
 [EAc]3!pp! [ce][ce][Bd] | [Ac]3!pp! [Ece][Ece][EBd] || %84
[K:E] [EAc][EAc][EGB]"^-" [E^A][EA]"^-"[F=A] | [EG]"^-"[EG][DF]"^-" E[G,B,E]"^-"[B,DF] | %86
 GB,E G[B,EG][B,DF] | [G,E]B,E [DF]B,[EG] |!<(! [FA]B,D!<)!!>(! F[B,FA]!>)![B,EG] | %89
 [B,DF]B,F [B,FA][B,FA][B,EG] | [DF]3 [FA][FA][E=G] | [B,DF] [=CDFA]2- [CDFA]2 [^A,^CE=G] | %92
 [DF]3"^cresc." FB,^G | [FA]B,D F[B,FA][B,EG] | [B,DF]B,F GE[EFA] | %95
!<(! [EGB]EG!<)!!>(! B[EGB]!>)![EFA] |"^cresc.-" [EG]BB [B,EB]"^-"[B,FB]"^-"[B,DA] | %97
"^-" [EG]B"^-"B [EB]"^-"[FB]"^-"[DAB] | [GB]BB!f! [B,DFB]2 z || %99
[K:A][M:4/4]!p! [G,B,EG] z [Ge]4"^dim." [Gd]2- | [Gd] z [A=c] z!pp! [Ac] z [Ac] z || %101
[K:F] (3[Ac]=Bc (3^GBc (3ABc (3FBc | (3Aef (3_Bef (3cfc (3A=Bc | (3A=Bc (3^GBc (3ABc (3FBc | %104
 (3Aef (3_Bef (3cfc (3A=Bc |"^sempre"!p! (3=B,CB, (3CB,C (3B,CB, (3CB,C | %106
 (3F,D=B, (3G,EC (3E,CG, (3CG,C | (3CE,G, (3EG,C (3G=B,C (3EB,C | %108
!<(! (3G=B,C (3AB,C (3_BCB (3=BC!<)!B | (3cEF (3cEF (3_BEF (3AE"^poco"F | %110
 (3!>!BCG (3B,GB, (3FA,C (3AA,C | (3cEF (3cEF (3BEF (3AE"^poco"F | %112
 (3!>!B!<(!EG (3B,GB,!<)!!>(! (3F=B,F (3_B,G!>)!B, |!pp! (3A=Bc (3^GBc (3ABc (3FBc | %114
 (3Aef (3_Bef (3cfc (3A=Bc | (C>A) (C>G) (G,>[=B,F]) (G,>[CE]) | %116
 (F,>[=B,D]) (G,>[CE]) (E,>C) (G,>C) | (E,>C) (G,>E)[K:treble] C>GC>E | C>GC>A C>B (3=BCB | %119
 (3cEF (3cEF (3_BEF (3AEF | (3BEG (3B,GB, (3[A,F]^GA (3Aef | (3cef (3=cef (3Bef (3A=Bc | %122
 (3_B=Bc (3(GBc (3FBc (3GB!pp!c) | [_A,C_A]2 z2 z4 | [_A,C_A]2 z2 z2 [A,CA]2 | %125
 [_A,C_A]2 [G,CG]2 [G,=B,F]2 [G,C_E]2 | [F,=B,D]2 [G,C_E]2 C2 [G,C]2 | [_B,C]4"^cresc." G2 E2 | %128
 [B,CEG]2 [CF_A]2 [_D=EGB]2 [=DFA=B]2 | [F_Ac]2 [Fc]2 [_G_B]2 [FA]2 | %130
 [=E=GB]2 [B,EG]2 ([_A,F]2 [CF_A]2 |"^a tempo" [CGc]2) [Fc]2"^poco rit." [_GB]2 [F_A]2 | %132
"^a tempo" [=GB]2!pp! [EG][EG] z [_A,F] z [EG] |!pp! z [_A,C_A] z [G,CG] z [A,CA] z [A,CF] | %134
 z [CF_A] z [CGB] z [CAc] z [CFA] | z [_A,C_A] z [G,CG] z [G,=B,F] z [G,C_E] | %136
 z [F,=B,D] z [G,C_E] z C z [G,C] | z [=E,G,C] z =E z G (GE/) z/ | %138
 z G z"^dim." [CF_A] z [_D=EGB] z [=DFA=B] | z!pp! [F_Ac] z [Fc] z!>(! [_GB] z!>)! [FA] | %140
 z [=GB] z [B,EG] z!pp! [_A,F] z [CF_A] | %141
 z"^a tempo" [CFc] z [Fc] z"^ritard."!>(! [_GB] z [F_A]!>)! | %142
 z"^a tempo" [=GB] (3GG,E (3FF,_A, (3GG,E | (3_AC_A, (3GCA, (3ACA, (3FCA, | %144
 (3_AC_A, (3GCA, (3ACA, (3ACA, | (3=B,CB, (3CB,C (3B,CB, (3CB,C | %146
 (3F,=B,D (3G,C_E (3_E,G,C (3=E,G, z | (3E,G,C (3E,G,C (3E,G,C (3E,G,C | %148
 (3E,G,C (3F,_A,C[K:treble] (3[G,B,][G,B,][G,B,] (3[A,=B,][A,B,][A,B,] | %149
"^ritard."!p! [_A,C]2 [_Ac]2 [_G_B]2 [FA]2 | [=G_B]2 [B,EG]2"^a tempo" [_A,F]2 [CF_A]2 | %151
 [_A,DF_A]2 z2 [G,EG]2 z2 |[M:6/8] c2 z cc'=a | dd'b cc'a | Bbg z (c'a) | z (Pd'b) z (Pc'a) | %156
 z (Pbg) z (Pbg) | z (Pc'a) z (Pbg) | z (Paf) (ac[Bg] | fce)"^cresc." (dg).e | %160
!>(! (fac)!>)!"^cresc." (dg).e |!f! [cfc']2 z z2!p! ([cfa] | gd[cfa] bg).a | %163
 [Acf]c!f![cfc']- [cfc']!p!(ca | gda bg).a | (g[=B=b][cc']) (cc'c | c'cc' cc'c) | c'cc' cc'c | %168
 c'cc' cc'c |"^sempre"!p! c'cb ac[cg] | fce!<(! (dg)!<)!.e |!>(! (fac)!>)!"^cresc." (dg).e | %172
!f! [cfc']2 z z2!p! [cfa] | (gd[cfa] bg).a | [Acf]c!f![cfc']- [cfc']!p!(ca | [fg]d[cfa] bg).a | %176
 (g[=B=b][cc']) (c_BA | dcB AGF) | E([DG][CG]) ([B,G][A,G][G,G]) | (A,CA, B,G,B,) | %180
 (A,F,G, A,[CA][B,G] | F2 E) DGE |!>(! F2 C!>)! D"^cresc."GE | [CFc]ED CB,!p![A,CFA] | %184
 [DFG]2 A BG[CA] | F2!f! [Fc]- [Fc]2 A | GD[CFA] BGA | G2"^cresc." [A,A] [A,^DA]2 [A,DA] | %188
 [^G,E^G]2 [A,A] [A,^DA]2 [A,DA] ||[K:A][M:4/4] [G,EG] e2 e2 e2 e- | e e2 e2 e2 e |({^de} e8 | %192
!p! G2) z [B=d] [GB] z z2 |({^de} e8 | A2) z [ce] [Ac] z z2 |"^Tempo I." e3 ^d e3 d | %196
 e3 ^d e3 (d/e/) | (e^efc =d^ABd) | (F^AcB =AGFE | FGAB cAcE) | (dBdE eceE) | %201
 (([ce]2 [Bd]))[Bd] (([Ac]2 [DB]))[DB] | (([CA]2 [DF]))[DF] [CE]2 [ce]2 | %203
 (([ce]2 [Bd]))[Bd] [Ac]2 [DB][DB] | (([CA]2 [DF]))[DF] [CE]2 [CE]2 | %205
 ([DF]2 [B,G])[B,G] [CA]2 [B,G][B,G] | [CA]2 [DB][DB] [CA]2 [CFA]2 | %207
 [B,^EG]2 [A,F][A,F] [B,EG]2 [CFA][CFA] | GCAG FCcc | ^B/d/c B/d/c G/=B/A =E/=G/F | %210
 (([DF]2 [CE]))[CE] (([F,D]2 [CE]))[CE] | (([DF]2 [E=G]))[EG] [FA]2 [DF]2 | %212
 (([DF]2 [CE]))[CE] (([F,D]2 [DF]))[DF] | dcBA ^G2 B2 | %214
"^cresc." [GB]2 G"^-"E"^-" [EAc]2"^-" A"^-"E |"^-" ([EAc]4"^-""^-" [EGB]2) (B"^-"c) | %216
"^-" [EGBd]2 B"^-"G c2"^-" A"^-"E |!>(! ([DB]4 [CA]2)!>)!!p! (dc) |"^cresc." B2 ee ^d/f/e d/f/e | %219
!p! (([ce]2 [B=d]))[Bd] (([Ac]2 [DB]))[DB] | (([CA]2 [DF]))[DF] [CE]2 [ce]2 | %221
 (([ce]2 [Bd]))[Bd] [Ac]2 [DB][DB] | (([CA]2 [DF]))[DF] [CE]2 [CE]2 | %223
 ([DF]2 [B,G])[B,G] [CA]2 [B,G][B,G] | [CA]2 [DB][DB] [CA]2 [CFA]2 | %225
 [B,^EG]2 [A,F][A,F] [B,EG]2 [CFA][CFA] | GCAG FCcc | ^B/d/c B/d/c G/=B/A =E/=G/F | %228
 (([DF]2 [CE]))[CE] (([F,D]2 [CE]))[CE] | (([DF]2 [E=G]))[EG] [FA]2 [DF]2 | %230
 (([DF]2 [CE]))[CE] (([F,D]2 [DF]))[DF] | dcBA ^G2 B2 | %232
"^cresc." [GB]2 G"^-"E"^-" [EAc]2"^-" A"^-"E |"^-" ([EAc]4"^-""^-" [EGB]2) (B"^-"c) | %234
"^-" [EGBd]2 B"^-"G c2"^-" A"^-"E |!>(! ([DB]4 [CA]2)!>)!!p! (dc) | B2"^cresc." ee{^de} e4 | %237
 (3(ece) (3(=dBd) (3(cAc) (3(BDB) | (3ACA (3FDF (3ECE (3ece | (([ce]2 [Bd]))[Bd] [Ac]2 [DB][DB] | %240
 (([CA]2 [DF]))[DF] [CE]2 [CE]2 | ([DF]2 [B,G])[B,G] [CA]2 [B,G][B,G] | %242
 [CA]2 [DB][DB] [CA]2 [CFA]2 |"^ritard." [B,^EG]2 [A,F][A,F] [B,EG]2 [A,FA][CFA] | %244
 ([^EG]CGA) (FCBA) | G3 G/A/ F2 [DF]2 | (([DF]2 [CE]))[CE] (([F,D]2 [CE]))[CE] | %247
 (([DF]2 [E=G]))[EG] [FA]2 [DF]2 | ((([A,DF]2 [=G,CE])))[G,CE] [F,D]2"^dim." [DF][Dd] | %249
!p! dcBA ^G2 B2 |"^-" [B,EGB]2"^-" z2"^-" [CEAc]2"^-""^-" z2 |"^-" ([Ac]4"^-""^-" [GB]2)"^-" z2 | %252
"^-" [GBd]2"^-" z2 c2"^-""^-" z2 |!>(! ([DB]4!>)! [CA]2) (B=c |"^-" d2 B"^-"G) (=c2"^-" A"^-"E) | %255
!>(! (B4!>)! A2) (d=c |!>(! B4)!>)! A2!pp! A2 || %257
[K:C][M:2/4]"^VI. Andante con moto, cantabile." (A{BA^G}A/>)B/ c=G | (G>F) (FE) |!<(! (DE FG!<)! | %260
!>(! AG/>F/ ED)!>)! | GG G>G | (G>A) (AG) | (B3/2c/4d/4) ((d/c/)(B/4c/4A/)) | G>F F/E/F/G/ | %265
 [A,CA]/A/C/A/ G,/G/C/G/ | G,/F/B,/F/ G,/E/C/E/ |!<(! A,/[CD]/C/E/ C/F/C/G/!<)! | %268
!>(! C/A/C/F/ G,/[CE]/G,/[B,D]/!>)! | A,/[CD]/^F,/[CD]/ B,/D/G,/D/ | %270
 A,/[CD]/^F,/[CD]/ G,/[B,D]/G,/[B,D]/ | G,/[=B,=F]/G,/[CE]/ A,/[CA]/G,/[CEG]/ | %272
 G,/[CEG]/G,/[DF]/ G,/[DF]/G,/[CE]/ | G>F F/E/F/G/ |"^ritard." [A,CA]/A/C/"^-"A/ G,/G/"^-"C/G/ | %275
"^-" G,/F/B,/"^-"F/ G,/E/"^-"C/E/ | ^G,/E/"^-"D/E/ C/"^-"E/[A,C]/"^-"E/ | %277
!pp! (6:4:6[^G,B,E]/[E,G,B,E]/[E,G,B,E]/[E,G,B,E]/[E,G,B,E]/[E,G,B,E]/ (6:4:6[E,G,B,E]/[E,G,B,E]/[E,G,B,E]/[E,G,B,E]/[E,G,B,E]/[E,G,B,E]/ | %278
 (6:4:6[E,^G,B,E]/[E,G,B,E]/[E,G,B,E]/[E,G,B,E]/[E,G,B,E]/[E,G,B,E]/ (6:4:6[E,G,B,E]/[E,G,B,E]/[E,G,B,E]/[E,G,B,D]/[E,G,B,D]/[E,G,B,D]/ | %279
 (6:4:6[E,A,C]/[E,A,C]/[E,A,C]/[E,A,C]/[E,A,C]/[E,A,C]/ (6:4:6[E,A,C]/[E,A,C]/[E,A,C]/[_E,A,C]/[E,A,C]/[E,A,C]/ | %280
 (6:4:6[D,A,C]/[D,A,C]/[D,^F,A,C]/[D,F,A,C]/[D,F,A,C]/[D,F,A,C]/ (6:4:6[D,F,A,C]/[D,F,A,C]/[D,F,A,C]/[D,F,A,C]/[D,F,A,C]/[D,F,A,C]/ | %281
 (6:4:6[D,G,B,]/[D,G,B,]/[D,G,B,]/[D,G,B,]/[D,G,B,]/[D,G,B,]/ (6:4:6[D,G,B,]/[D,G,B,]/[D,G,B,]/[D,G,B,]/[D,G,B,]/[D,G,B,]/ | %282
 ([G,G]>[^G,^G]) ([G,G][A,A]) | [A,CA]/A/C/A/ G,/G/C/G/ | G,/F/B,/F/ G,/E/C/E/ | %285
 A,/[CD]/C/E/ C/F/C/G/ | C/A/C/F/ G,/[CE]/G,/[B,D]/ | A,/[CD]/^F,/[CD]/ B,/D/G,/D/ | %288
 A,/[CD]/^F,/[CD]/ G,/[B,D]/G,/[B,D]/ | G,/[=B,=F]/G,/[CE]/ A,/[CA]/G,/[CEG]/ | %290
 G,/[CEG]/G,/[DF]/ G,/[DF]/G,/[CE]/ | G>F F/E/F/G/ | AA/B/ c[CG] | [B,FB]!p![CEc] D/-F/-G/-B/- || %294
[M:3/4] !fermata![FGBd]2 G2 G2 | G3 A Bc | (c>E) ([EG]2 [DF]2) | %297
 [CE]/[CE]/ z/[K:bass] [E,G,CE]/ z/ [E,G,CE]/ z/ [E,G,CE]/ z/ [E,G,CE]/ z/ [E,G,CE]/ | %298
 z/ [E,A,CE]/ z/ [E,A,CE]/ z/ [E,A,CE]/ z/ [E,G,CE]/ z/ [F,CF]/ z/ [E,CE]/ | %299
 z/ [A,D]/ z/ [A,DF]/[K:treble] z/ [A,DA]/ z/ [A,DA]/ z/ [A,CDA]/ z/ [A,CDA]/ | %300
 z/ [B,D]/ z/ [B,D]/ z/ [DG]/ z/ [DG]/ z/ [EG]/ z/ [EA]/ | %301
 z/ [C_EG]/ z/ [CEG]/ z/ [CE^F]/ z/ [CEF]/ z/ [G,D=F]/ z/ [G,DF]/ | %302
 z/ [G,DF]/ z/ [G,DF]/ z/ [G,C=E]/ z/ [G,CE]/ [CGc][CGB] | [CGB][CGB] [CFA][CEG] [B,DF][F,B,D] | %304
 C2 G3 A | G2 ^F2 =FG | [DF]2 [C=E]2 [DG][EA] | G2 ^F2 =FG | [DF]2 =E2 ga | g2 ^ff =fg | f2 ed cB | %311
!>(! ([C-B]2!>)! [CA])[CEG] [B,DF][F,B,D] | [E,C] z{/G} !>!g3 c | B2{/G} !>!g3 B | cGCcCB | %315
 CACGC[FB] | [Ec]2 (3g^fg (3agc | B2 (3g^fg (3agB | cGCcCB | CACG[CE]c | !fermata![FB]2 (G3 A | %321
 G2 ^F2) (=FG | F2 E2) [Gg][Aa] | ([Gg]2 [^F^f]2) [=F=f][Gg] | [Ff]2 [Ee]2 [Gg][Aa] | %325
 ([Gg]2 [^F^f]2) [=F=f][Gg] | [Ff]2 [Ee]dcB | ([C-B]2 [CA])[DA][DAd][DAc] | %328
 !fermata![DGB]2 [CGc]2 z2 | z2!ff! [EGce]2 [EGce]2 | [EGce][EGce][EGce][DFBd][CGc][CFA] | %331
 [CFA][CFA][CEG][EGc][EGc][EGce] | [EGce][EGe][EGe][EGe][DFd][EGe] | %333
 [CEc]2 ((([ege']2 [dfd'])))[ege'] | [cec']2 ((([EGe]2 [DFd]))).[EGe] | %335
 .[FAf].[GBg].[Aca].[Bdb].[cec'].[dfd'] |"^dimin." .[ge'].[af'] g2 g!p!a | (g2 ^f2 =fg | %338
 f=ed"^dimin."cAG | FEDC[I:staff +1]G,E, |[I:staff -1] x2)"^cresc." (gabc') | %341
!f! c'2 !fermata![EGce]4 |] %342
V:3
!p! [C,,C,]2[K:treble] E2 D2 | z2[K:bass] [C,,C,]2 z2 | z2 [A,,,A,,]2 z [G,,,G,,] | %3
 [F,,,F,,]2 [F,,,F,,]2 [^F,,,^F,,]2 | [G,,,G,,]2 B,,2 C,2 | A,,2 A,2 B,2 | G,2 C2 E,2 | %7
 [F,,C,F,]2 [F,,C,F,][G,,C,G,][G,,G,][G,,,G,,] | [C,,C,]2"^espressivo" [C,E,G,C]4 | %9
 [C,D,F,B,]2 [C,D,F,B,]3 B, | D[D,F,][D,F,][^C,E,][E,G,][D,F,] | [=C,E,] z C,z/C,/ C,, z | %12
 z2 A,z/A,/ A,,G,, | F,, z F,z/[F,,F,]/ [^F,,^F,]2 | [G,,G,] z [B,,G,]z/[B,,G,]/ [C,G,] z | %15
"^cresc." z2 [A,C]z/"^-"[A,,A,]/"^-" [B,,G,B,]"^-" z |"^-" z2"^-" Cz/"^-"[E,G,]/ [E,G,]"^-"[E,G,] | %17
 G,^G, A, =G,F,G,, | [C,,C,]2 [C,E,G,C]z/[K:treble][CE]/ [EG] z | %19
 [C,,C,]2 [C,D,F,B,]z/"^dim."[B,D]/ [DF]B, | D [D,F,][D,F,][^C,E,] [E,G,][D,F,] | %21
 [=C,E,][C,,C,] z [C,,C,] z [C,,C,] | z [A,,,A,,] z [A,,,A,,] z [G,,,G,,] | %23
 z [F,,,F,,] z [F,,,F,,] [F,,,F,,][^F,,,^F,,] | [G,,,G,,][G,,,G,,] z [B,,,B,,] z [C,,C,] | %25
 z [A,,,A,,] [A,C][A,C] [B,D]/z/[B,,,B,,] | z [C,,C,] C,[E,G,] [E,G,]/z/[E,,E,] | %27
 [F,,F,][F,,,F,,] z [G,,,G,,] z [G,,,G,,] | z [C,,C,] z/ C,/[E,G,C]/C,/ EC/ z/ | %29
 z [C,,C,] z/ C,/[D,F,B,]/C,/ [B,DF]B, | D[D,F,][D,F,][^C,E,] [E,G,][D,F,] | %31
 [=C,E,]2!<(! [C,,C,]3!<)!!>)!!>(! [C,,C,] | [A,,,A,,]2 [A,,,A,,]3 [G,,,G,,] | %33
 [F,,,F,,]2 [F,,,F,,]3 [^F,,,^F,,] | [G,,,G,,]2"^dolce" [B,,G,]2 [C,G,]2 | %35
 [A,,G,]2 [A,,^F,]2 [B,,D,=F,]2 | [C,D,F,]2 [C,E,]2"^cresc." [E,,C,E,]2 | %37
 [F,,C,F,]2 [F,,C,F,][G,,C,G,] [G,,G,][G,,,G,,] | (3[C,,C,]E,G, (3E,G,C (3EDC | %39
 (3[C,D,F,B,]D,F, (3B,D-[B,DF]- (3[B,DF]-[B,DF]B, | (3DE,F, [D,F,][^C,E,][E,G,][D,F,] | %41
 [=C,E,]C, C,,C, C,,C, | A,,,A,,A,,,A,,[A,,,A,,][G,,,G,,] | F,,,F,,F,,,F,,^F,,,^F,, | %44
 G,,,G,,"^cre"B,,,"^-"B,,C,,"^-"C, |"^-" A,,,"^-"A,,A,,,"^-""^scen"A,,B,,,B,, | %46
 C,,C,C,,C,[E,,,E,,][E,,,E,,] | [F,,,F,,][F,,,F,,][F,,,F,,][G,,,G,,][G,,,G,,][G,,,G,,] | %48
 [C,,C,]/E,/G,/C/ C,/E,/G,/C/ C,/E,/G,/C/ | C,/D,/F,/B,/ C,/D,/F,/B,/ C,/D,/F,/B,/ | %50
 C,/D,/F,/B,/ C,/E,/G,/C/ [C,,C,]2 | !fermata![C,,C,]6 | z2 .[C,,C,]2 .[C,,C,]2 || %53
[K:E][M:6/8] !fermata![B,,,B,,]3 z [B,,E,][B,,D,F,] | [B,,E,G,]3 [B,,E,]2 [B,,D,F,] | %55
!<(! [B,,E,G,]3-!<)! [B,,E,G,]!>(![B,,E,G,]!>)![B,,D,F,] | [E,,E,]2 z z [B,,E,][B,,D,F,] | %57
!<(! [B,,E,G,]3-!<)! [B,,E,G,]!>(![B,,E,G,]!>)![B,,D,F,] | [E,,E,]2 z z [B,,D,F,][B,,E,G,] | %59
!<(! [B,,F,A,]3-!<)! [B,,F,A,]!>(![B,,F,A,]!>)![B,,E,G,] | [B,,D,F,]3 [B,,F,A,][B,,F,A,][B,,E,G,] | %61
 [B,,D,F,]3[K:treble] [B,F][B,F][B,E] | [B,D]3 z[K:bass] [B,,D,F,][B,,E,G,] | %63
!<(! [B,,F,A,]3-!<)!!>(! [B,,F,A,][B,,F,A,]!>)![B,,E,G,] | [B,,D,F,]3 z [E,G,][E,F,A,] | %65
 [E,G,B,]3- [E,G,B,][E,G,B,][E,F,A,] | [E,G,]3 C,D,B,, | E,3[K:treble] CDB, | %68
!<(! E3!<)![K:bass] C,!>(!D,!>)!B,, | E,3!p! B,"^dim."B,A, | G,G,F, E,[E,C][E,B,] | %71
 [E,A,]E,E,!pp! E,[A,,E,][A,,E,] ||[K:A] [A,,E,]3- [A,,E,][A,,E,][A,,E,] | %73
 [A,,E,]3 [E,,E,]2 [E,,E,] | [E,,E,]3- [E,,E,][E,,E,][E,,E,] | [E,,E,]3 [E,,E,][E,,E,][E,,E,] | %76
 [E,,E,]3 [E,,E,]2 [E,,E,] | [E,,E,]3- [E,,E,][E,,E,][E,,E,] | [E,,E,]3 [A,,E,]2 [A,,E,] | %79
 [A,,E,]3- [A,,E,][A,,E,][A,,E,] | [A,,E,]3 [A,,E,][A,,E,][A,,E,] | [A,,E,]3 F,G,E, | %82
 A,3 [A,,E,][A,,E,][A,,E,] | [A,,E,]3 F,G,E, ||[K:E]"^cresc." A,A,B, CC[D,=C] | %85
 [E,B,][B,,B,][B,,A,] [B,,G,][B,,E,][B,,D,F,] | %86
!<(! [B,,E,G,]3-!<)!!>(! [B,,E,G,][B,,E,G,]!>)![B,,D,F,] | [E,,E,]3 [B,,D,F,]2 [B,,E,G,] | %88
 [B,,F,A,]3- [B,,F,A,][B,,F,A,][B,,E,G,] | [B,,D,F,]3 [B,,F,A,][B,,F,A,][B,,E,G,] | %90
 [B,,D,F,]3 [B,,F,A,][B,,F,A,][B,,E,=G,] | [B,,D,F,]2 [B,,F,A,]- [B,,F,A,]2 [B,,E,=G,] | %92
!>(! [B,,D,F,]3!>)! [B,,D,F,]2 [B,,E,^G,] | [B,,F,A,]3- [B,,F,A,][B,,F,A,][B,,E,G,] | %94
 [B,,D,F,]3 [E,G,]2 [E,F,A,] | [E,G,B,]3- [E,G,B,][E,G,B,][E,F,A,] | [E,G,]B,B, C,D,B,, | %97
 E,B,B, CDB, | EB,B, [B,,D,F,]2 z ||[K:A][M:4/4] [E,,E,] z [E,G,B,E] z [E,G,B,E] z [E,G,B,D] z | %100
 [E,G,B,D] z [E,A,=C] z [=F,A,C] z [F,A,C] z ||[K:F] [F,A,C] z [F,^G,=B,] z [F,A,C] z [F,A,] z | %102
 [F,A,] z [F,=G,_B,] z [F,A,C] z [F,A,] z | [F,A,C] z [F,^G,=B,] z [F,A,C] z [F,A,] z | %104
 [F,A,C] z [F,=G,_B,] z [F,A,C] z [F,A,] z | F, z E, z D, z C, z | G,, z G,, z [C,,C,] z E, z | %107
 [C,,C,] z [C,E,] z [C,E,G,] z [C,E,] z | [C,E,G,] z [F,A,] z [F,G,B,] z [F,^G,=B,] z | %109
!>(! [F,A,C] z A, z D z C!>)! z | [C,G,B,] z [C,E,G,] z [C,F,] z [F,,F,] z | A, z A, z D z C z | %112
 [C,G,B,] z [C,E,G,]2 [D,F,]2 [C,E,G,]2 | [F,A,] z [F,^G,=B,] z [F,A,C] z [F,A,] z | %114
 [F,A,] z [F,=G,_B,] z [F,A,C] z [F,A,] z | F, z E, z D, z C, z | G,, z G,, z [C,,C,] z [E,,E,] z | %117
 [C,,C,] z [C,E,] z [C,E,G,] z [C,E,] z | [C,E,G,] z [F,A,] z [F,G,_B,] z [F,^G,=B,] z | %119
!>(! [F,A,C] z A, z D z C z!>)! | [C,G,B,] z [C,E,G,] z [C,F,] z [F,,F,] z | %121
 [A,,A,] z[K:treble] A, z D z [CF] z | [CG] z!<(! C2 _D2!<)!!>(! C2!>)! | [F,,C,F,]2 z2 z4 | %124
 [F,,C,F,]2 z2 z2 [F,,C,F,]2 | [F,,C,F,]2 [_E,,C,_E,]2 [D,,D,]2 [C,,C,]2 | %126
 [G,,,G,,]2 [G,,,G,,]2 [C,,C,]2 =E,2 | [C,E,G,]4 [C,E,G,]2 [C,E,]2 | %128
!<(! [C,E,G,]2 [F,_A,]2 [F,G,B,]2!<)! [F,A,=B,]2 |"^ritard." [F,_A,C]2 A,2 _D2 D2 | %130
 C2 C,2 C,2 F,,2 | _A,,2 _A,2 _D2 D2 | C2 C, z _D, z C, z | %133
 [F,,C,F,] z [F,,C,F,] z [F,,C,F,] z [F,,C,F,] z | %134
 [F,,C,F,] z [F,,C,F,] z [F,,C,F,] z [F,,C,F,] z | [F,,F,] z [_E,,_E,] z [D,,D,] z [C,,C,] z | %136
 [G,,,G,,] z [G,,,G,,] z [C,,C,] z [=E,,=C,] z | [C,,C,] z [C,E,] z [C,E,G,] z [C,E,] z | %138
 [C,E,G,] z [F,_A,] z [F,G,B,] z [F,A,=B,] z | [F,_A,C] z A, z _D z"^ritard." D z | %140
!p! C z C, z C, z F,, z | _A,, z _A, z _D z D z |!p! C!pp! z C, z _D, z C, z | %143
 (3F,,C,F, (3F,,C,F, (3F,,C,F, (3F,,C,F, | (3F,,C,F, (3F,,C,F, (3F,,C,F, (3F,,C,F, | %145
 (3F,,C,F, (3_E,,C,_E, (3D,,G,,D, (3C,,G,,C, | (3G,,,G,,G,, (3G,,,G,,G,, (3C,,C,C, (3C,,C,C, | %147
"^cresc." (3C,,C,C, (3C,,C,C, (3C,,C,C, (3C,,C,C, | (3C,,C,C, (3F,,C,C, (3C,,C,C, (3F,,C,C, | %149
 [F,,C,]2 F,2 _G,2 _D2 | C2 C,2"^cresc." C,2 F,,2 |!f! [=B,,,=B,,]2 z2!f! [C,,C,]2 z2 | %152
[M:6/8]!p! [C,,C,]2 z [C,=A,C]2 z | [C,B,D]2 z [C,A,C]2 z | [C,G,B,]2 z [C,A,C]2 z | %155
 [C,B,D]2 z [C,A,C]2 z | [C,G,B,]2 z [C,G,B,]2 z | [C,A,C]2 z [C,G,B,]2 z | %158
 [C,F,A,]2 z [F,,F,]2 [G,,F,] | [A,,F,]2 [B,,C,G,] [B,,C,G,]2 [B,,C,G,] | %160
 [A,,C,F,]2 [B,,C,G,] [B,,C,G,]2 [B,,C,G,] | [A,,C,F,A,]2 z z2 [F,,F,] | %162
 [B,,F,G,] z [C,F,A,] [C,G,B,] z [C,F,A,] | [F,,F,]2[K:treble] [A,CF]- [A,CF]2 [F,F] | %164
 [B,FG]2 [CFA] [CGB][CEG][CFA] | [CEG]2 z[K:bass] C,CA, | C,DB, C,CA, | C,B,G, C,B,G, | %168
 C,CA, C,B,G, | C,A,G, [F,A,]2 [G,B,] | [A,C]2 [B,CG] [B,CG]2 [B,CG] | %171
 [A,CF]2 [B,CG] [B,CG]2 [B,CG] | [A,CFA]2 z z2 [F,F] | [B,FG]2 [CFA] [CGB][CEG][CFA] | %174
 [F,F]2 [A,CF]- [A,CF]2 [F,CF] | [B,FG]2 [CFA] [CGB][CEG][CFA] | [CEG]3[K:bass] C,CA, | %177
 C,DB, C,CA, | C,B,A, G,F,E, | [C,F,]A,F, C,E,[C,E,G,] | F,A,,B,, C,D,E, | F,G,A, B,,G,C, | %182
 A,,F,C, B,,G,C, |!f! [A,,C,F,A,]2 z z2 [F,,F,] | [B,,F,G,]2 [C,F,A,] [C,G,B,][C,E,G,][C,F,A,] | %185
 [F,,F,]2 [A,,C,F,A,]- [A,,C,F,A,]2!p! [F,,F,] | [B,,F,G,]2 [C,F,A,] [C,G,B,]2 [C,F,A,] | %187
 [C,E,G,]2 [F,,F,] [F,,F,]2 [F,,F,] | [E,,E,]2 [F,,F,] [F,,F,]2 [F,,F,] || %189
[K:A][M:4/4]!f! [E,,E,]2 [E,E]2 [E,E]2 [E,E]2 | [E,E]2 [E,E]2 [E,E]2 [E,E]2 |!>(! [E,G,B,E]8!>)! | %192
 [E,B,D]2 z [B,D] [E,B,] z z2 |!>(! [E,A,CE]8!>)! | [E,A,CE]2 z [CE] [A,C] z z2 | %195
 z [G,B,][E,G,] z z[K:treble] [B,G][G,E] z | z [GB][EG] z z [Ac][EA] z | %197
 [EB=d]2[K:bass] [E,,B,,D,]2 [E,,B,,D,]2 [E,,B,,D,]2 | %198
 [E,,B,,D,]2 [E,,B,,D,]2 [E,,B,,D,]2 [E,,B,,D,]2 | %199
 [E,,B,,D,]2 [E,,B,,D,]2 [E,,B,,D,]2 [E,,B,,D,]2 | [E,,B,,D,]2 [E,,B,,D,]2 [E,,C,E,]2 [E,,C,E,]2 | %201
 A,,,2 E,,E,, A,,2 E,,2 | A,,,2 E,,E,, A,,2 E,,2 | A,,,2 E,,E,, A,,2 E,,2 | %204
 A,,,2 E,,E,, A,,2 E,,2 | A,,,2 E,,E,, A,,2 E,,2 | A,,,2 E,,E,, A,,2 C,2 | C,2 F,,F,, C,2 F,F, | %208
 [C,B,]C,CB, A,C,B,A, | G,C,A,G, F,F,,D,D,, | D,,2 A,,A,, D,2 A,,A,, | D,,2 A,,A,, D,2 A,,2 | %212
 D,,2 A,,A,, D,2 B,,B,, | B,,2 D,^D, E,2 [E,G,B,]2 | E,2 [G,B,][G,B,] A,,2 [E,A,][E,A,] | %215
 E,,2 A,,C, E,F,G,A, | E,2 [B,D][G,B,] A,,2 [E,A,][E,A,] | E,,E,F,G, A,E,DC | %218
 [E,B,]E,[A,C][G,B,] [A,,A,]2 A,,,2 | A,,,2 E,,E,, A,,2 E,,2 | A,,,2 E,,E,, A,,2 E,,2 | %221
 A,,,2 E,,E,, A,,2 E,,2 | A,,,2 E,,E,, A,,2 E,,2 | A,,,2 E,,E,, A,,2 E,,2 | A,,,2 E,,E,, A,,2 C,2 | %225
 C,2 F,,F,, C,2 F,F, | [C,B,]C,CB, A,C,B,A, | G,C,A,G, F,F,,D,D,, | D,,2 A,,A,, D,2 A,,A,, | %229
 D,,2 A,,A,, D,2 A,,2 | D,,2 A,,A,, D,2 B,,B,, | B,,2 D,^D, E,2 [E,G,B,]2 | %232
 E,2 [G,B,][G,B,] A,,2 [E,A,][E,A,] | E,,2 A,,C, E,F,G,A, | E,2 [B,D][G,B,] A,,2 [E,A,][E,A,] | %235
 E,,E,F,G, A,E,DC | [E,B,]E,[A,C][G,B,] [A,,A,]2 A,,,2 | A,,,2 E,,E,, A,,2 E,,E,, | %238
 A,,,2 E,,E,, A,,2 E,,E,, | A,,,2 E,,E,, A,,2 E,,2 | A,,,2 E,,E,, A,,2 E,,2 | %241
 A,,,2 E,,E,, A,,2 E,,2 | A,,,2 E,,E,, A,,2 C,2 | C,2 F,,F,, C,2 F,F, | [C,B,]C,B,C [F,A,]C,B,A, | %245
 [C,G,]4 [F,,F,]2 D,,2 | D,,2 A,,A,, D,2 A,,A,, | D,,2 A,,A,, D,2 A,,2 | D,,2 A,,A,, D,2 D,B,, | %249
 B,,2 D,^D,"^ritard." E,2 [E,G,]2 | [E,G,]2 z2 [A,,E,A,]2 z2 |!<(! [E,,E,]2 C!<)!!>(!^D!>)! E2 z2 | %252
 [E,B,=D]2 z2 [A,,E,A,]2 z2 | [E,,E,]3 [E,G,] [A,,A,]2 z2 | E,2 [B,D][G,B,] A,,2 [E,A,][E,A,] | %255
 [E,,E,]3 [E,G,] [A,,A,]2 z2 | [E,,E,]3 [E,G,] [A,,A,]2 A,2 ||[K:C][M:2/4] F,/C/A,/C/ E,/C/G,/C/ | %258
 D,/B,/G,/B,/ C,/C/G,/C/ | F,/C/G,/C/ A,/C/E,/C/ | F,/C/A,/C/ G,/C/G,/B,/ | %261
 D,/G,/B,,/G,/ C,/G,/E,/G,/ | D,/G,/B,,/G,/ C,/G,/E,/G,/ | D,/G,/[F,G,]/D/ [E,G,]/C/[F,A,]/C/ | %264
 G,,/G,/G,,/G,/ C,/C,/D,/E,/ | [F,,C,F,] z [E,,C,E,] z | [D,,G,,D,] z [C,,G,,C,] z | %267
 [F,,C,][G,,C,G,] [A,,C,A,][E,,C,E,] | [F,,C,F,][A,,C,A,]G,,G,, | [^F,,D,][A,,D,] [G,,D,][B,,D,] | %270
 [^F,,D,][A,,D,] [G,,D,]2 | [G,,D,][C,E,] [=F,,=C,=F,][G,,C,E,] | [G,,C,E,]G,, [C,,C,]2 | %273
 G,,/G,/G,,/G,/ C,/C,/D,/E,/ |"^dimin." [F,,C,F,][C,F,] [E,,C,E,][C,E,] | %275
 [D,,G,,D,]G,, [C,,G,,C,]G,, | [B,,,E,,B,,][E,,B,,] [A,,,E,,A,,][A,,,E,,A,,] | %277
 (6:4:6[E,,,E,,]/[E,,,E,,]/[E,,,E,,]/[E,,,E,,]/[E,,,E,,]/[E,,,E,,]/ (6:4:6[E,,,E,,]/[E,,,E,,]/[E,,,E,,]/[E,,,E,,]/[E,,,E,,]/[E,,,E,,]/ | %278
 (6:4:6[E,,,E,,]/[E,,,E,,]/[E,,,E,,]/[E,,,E,,]/[E,,,E,,]/[E,,,E,,]/ (6:4:6[E,,,E,,]/[E,,,E,,]/[E,,,E,,]/[E,,,E,,]/[E,,,E,,]/[E,,,E,,]/ | %279
 (6:4:6[A,,,E,,]/[A,,,E,,]/[A,,,E,,]/[A,,,E,,]/[A,,,E,,]/[A,,,E,,]/ (6:4:6[A,,,E,,]/[A,,,E,,]/[A,,,E,,]/[=G,,,_E,,]/[G,,,E,,]/[G,,,E,,]/ | %280
 (6:4:6[^F,,,D,,]/[F,,,D,,]/[F,,,D,,]/[D,,,D,,]/[D,,,D,,]/[D,,,D,,]/ (6:4:6[D,,,D,,]/[D,,,D,,]/[D,,,D,,]/[D,,,D,,]/[D,,,D,,]/[D,,,D,,]/ | %281
 (6:4:6[G,,,D,,]/[G,,,D,,]/[G,,,D,,]/[G,,,D,,]/[G,,,D,,]/[G,,,D,,]/ (6:4:6[G,,,D,,]/[G,,,D,,]/[G,,,D,,]/[G,,,D,,]/[G,,,D,,]/[G,,,D,,]/ | %282
 [G,,,G,,][E,,,E,,] [=F,,,=F,,]2 | [F,,C,F,] z [E,,C,E,] z | [D,,G,,D,] z [C,,G,,C,] z | %285
 [F,,C,][G,,C,G,] [A,,C,A,][E,,C,E,] | [F,,C,F,][A,,C,A,] G,,G,, | [^F,,D,][A,,D,] [G,,D,][B,,D,] | %288
 [^F,,D,][A,,D,] [G,,D,]2 | [G,,D,][C,E,] [=F,,=C,=F,][G,,C,E,] | [G,,C,E,]G,, [C,,C,]2 | %291
 G,,/G,/G,,/G,/ C,/C,/D,/E,/ | [F,A,]/C/A,/C/ [E,G,]/C/[E,G,]/G,/ | %293
 [D,F,]/G,/[C,E,]/G,/ (6:4:6G,,/B,,/D,/F,/G,/B,/ ||[M:3/4] !fermata!z2 E2 D2 | C2 [C,E,G,C]2 z2 | %296
 z2 [E,G,]2 [D,F,]2 | [C,E,]C, C,,C, C,,C, | A,,,A,, A,,,A,, [A,,,A,,][G,,,G,,] | %299
 F,,,F,, F,,,F,, ^F,,,^F,, | G,,,G,, B,,,B,, C,,C, | A,,,A,, A,,,A,, B,,,B,, | %302
 C,,C, C,,C, [E,,,E,,][E,,,E,,] | [F,,,F,,][F,,,F,,] [F,,,F,,][G,,,G,,] [G,,,G,,][G,,,G,,] | %304
 [C,,C,]C, B,,G, C,G, | A,,G, A,,G, B,,G, | C,G, C,G, [B,,G,][C,G,] | A,,G, A,,G, B,,G, | %308
 C,G, C,G, [B,,D,G,][C,E,G,] | [A,,C,]G, [A,,C,]G, [B,,D,]G, | [C,E,]G, [C,E,][D,F,] [E,G,][E,G,] | %311
 G,^G, A, =G,F,D, | [C,,C,]/E,/G,/C/ C,/E,/G,/C/ C,/E,/G,/C/ | %313
 C,/D,/F,/B,/ C,/D,/F,/B,/ C,/D,/F,/B,/ | C,2 [A,,A,]2 [G,,G,]2 | [F,,F,]2 [E,,E,]2 [D,,D,]2 | %316
 [C,,C,]/E,/G,/C/ C,/E,/G,/C/ C,/E,/G,/C/ | C,/D,/F,/B,/ C,/D,/F,/B,/ C,/D,/F,/B,/ | %318
 [C,E,G,]2 [A,,A,]2 [G,,G,]2 | [F,,F,]2 [E,,E,]2 [C,,C,]2 | !fermata![G,,,G,,]2 B,,G,C,G, | %321
 A,,G,A,,G,B,,G, | C,G,C,G,[B,,D,G,][C,E,G,] | [A,,C,]G,[A,,C,]G,[B,,D,]G, | %324
 [C,E,]G,[C,E,]G,[B,,D,G,][C,E,G,] | [A,,C,]G,[A,,C,]G,[B,,D,]G, | %326
 [C,E,]G,[C,E,][D,F,][E,G,][E,G,] | G,^G, A, A,A,A, |!p! !fermata![F,=G,B,]2!f! [E,G,]2 z2 | %329
 z2 [C,,C,]2 [C,,C,]2 | [C,,C,][C,,C,][C,,C,][D,,D,][E,,E,][F,,F,] | %331
 [F,,F,][F,,F,][G,,G,][G,,G,][G,,G,][G,,G,] | %332
 [G,,G,][G,,,G,,][G,,,G,,][G,,,G,,][G,,,G,,][G,,,G,,] | G,,G,,G,,G,,G,,G,, | G,,G,,G,,G,,G,,G,, | %335
 [G,,,G,,][G,,,G,,][G,,,G,,][G,,,G,,][G,,,G,,][G,,,G,,] | %336
 [G,,,G,,][G,,,G,,][G,,,G,,][B,,,B,,][C,,C,]C, | [A,C]C,[A,C]C,[B,D]C, | CC,G,C,E,C, | %339
 C,C,G,,C,G,,E,, |!pp! C,2 [G,,C,]2 [G,,C,]2 | [C,,E,,G,,C,]2 !fermata![C,,E,,G,,C,]4 |] %342
V:4
 x6 | x6 | x6 | A,2 [A,D]2 [A,CD]2 | B,2 D2 E2 | [C_E]4 D2 | x6 | x6 | x6 | x6 | x6 | x6 | x6 | %13
 x6 | x6 | x6 | x6 | C3 C B,[F,B,] | x6 | x6 | x6 | x6 | x6 | x6 | x6 | _E/C/E/C/ x2 =F/ x/ D/G,/ | %26
 D/G,/D/G,/ x2 C/ x/ G/C/ | G/C/G/C/ F/C/E/C/ D/B,/B,/F,/ | x6 | x6 | x6 | x2[K:bass] x4 | x6 | %33
 x2[K:treble] x4 | x6 | x6 | G,2 G,2 [CG]2 | x6 | x6 | x6 | x6 | x6 | x6 | x6 | x6 | x6 | x6 | x6 | %48
 x6 | x6 | x6 | x6 | x6 ||[K:E][M:6/8] x6 | x6 | x6 | x6 | x6 | x6 | x6 | x6 | x6 | x6 | x6 | x6 | %65
 x6 | x6 | x6 | x6 | x6 | x6 | x6 ||[K:A] x6 | x6 | x6 | x6 | x6 | x6 | x6 | x6 | x6 | x6 | x6 | %83
 x6 ||[K:E] x6 | x6 | x6 | x6 | x6 | x6 | (B,=CB,) B,B,B, | x6 | B,=CB, DB,E | x6 | x6 | x6 | x6 | %97
 x6 | x6 ||[K:A][M:4/4] x8 | x8 ||[K:F] x8 | x8 | x8 | x8 | x8 | x8 | x8 | x8 | x8 | x8 | x8 | x8 | %113
 x8 | x8 | x8 | x8 | x4[K:treble] x4 | x8 | x8 | x8 | x8 | x2 E2 F2 E2 | x8 | x8 | x8 | x8 | %127
 (C2 =E2 [B,C]2 [B,C]2) | x8 | x8 | x8 | x8 | x8 | x8 | x8 | x8 | x8 | x8 | x8 | x8 | x8 | x8 | %142
 x8 | x8 | x8 | x8 | x8 | x8 | x4[K:treble] x4 | x8 | x8 | x8 |[M:6/8] x6 | x6 | x6 | x6 | x6 | %157
 x6 | x6 | x6 | x6 | x6 | x6 | x6 | x6 | x6 | x6 | x6 | x6 | x6 | x6 | x6 | x6 | x6 | x6 | x6 | %176
 x6 | x6 | x6 | x6 | x6 | A,B,C C3 | C2 C C2 C | x6 | x6 | [A,C]ED CB,[A,C] | x6 | x6 | x6 || %189
[K:A][M:4/4] x8 | x8 | x8 | x8 | x8 | x8 | x8 | x8 | x8 | x8 | x8 | x8 | x8 | x8 | x8 | x8 | x8 | %206
 x8 | x8 | x8 | x8 | x8 | x8 | x8 | F2 FB, B,2 G2 | x8 | x8 | x8 | x8 | x8 | x8 | x8 | x8 | x8 | %223
 x8 | x8 | x8 | x8 | x8 | x8 | x8 | x8 | F2 FB, B,2 G2 | x8 | x8 | x8 | x8 | x8 | x8 | x8 | x8 | %240
 x8 | x8 | x8 | x8 | x8 | ^EDC[B,E] A,2 A,2 | x8 | x8 | x8 | F2 FB, [B,E]2 [B,EG]2 | x8 | x8 | x8 | %253
 x8 | x8 | (D2 =FE/D/ =C2) FE | D2 =FE/D/ =C2 A2 ||[K:C][M:2/4] x4 | x4 | x4 | x4 | FD EC | %262
 F[DF] EE | x4 | [CE][B,D] D/C/C/C/ | x4 | x4 | x4 | x4 | x4 | x4 | x4 | x4 | [CE][B,D] D/C/C/C/ | %274
 x4 | x4 | x4 | x4 | x4 | x4 | x4 | x4 | x4 | x4 | x4 | x4 | x4 | x4 | x4 | x4 | x4 | %291
 [CE][B,D] D/C/C/C/ | x4 | x4 ||[M:3/4] D2 G2 F2 | E2 x4 | x6 | x3/2[K:bass] x9/2 | x6 | %299
 x2[K:treble] x4 | x6 | x6 | x6 | x6 | E,2 D2 E2 | [C_E]4 D2 | x6 | [C_E]4 D2 | x6 | x6 | x6 | x6 | %312
 x6 | x6 | x6 | x6 | x6 | x6 | x6 | x6 | D2 D2 E2 | [C_E]4 D2 | x6 | x6 | x6 | x6 | x6 | x6 | x6 | %329
 x6 | x6 | x6 | x6 | x6 | x6 | x6 | ef [Bf]d ee | _e4 x2 | x6 | x6 | x6 | x6 |] %342
V:5
 x2[K:treble] x4 | x2[K:bass] x4 | x6 | x6 | x6 | A,,4 [B,,G,]2 | C,4 [E,,C,]2 | x6 | x6 | x6 | %10
 x6 | x6 | x6 | x6 | x6 | x6 | x6 | F,3 [=G,,E,] [G,,D,]G,,, | x7/2[K:treble] x5/2 | x6 | x6 | x6 | %22
 x6 | x6 | x6 | x6 | x6 | x6 | x6 | x6 | x6 | x6 | x6 | x6 | x6 | x6 | x6 | x6 | x6 | x6 | x6 | %41
 x6 | x6 | x6 | x6 | x6 | x6 | x6 | x6 | x6 | x6 | x6 | x6 ||[K:E][M:6/8] x6 | x6 | x6 | x6 | x6 | %58
 x6 | x6 | x6 | x3[K:treble] x3 | x4[K:bass] x2 | x6 | x6 | x6 | x6 | x3[K:treble] x3 | %68
 x3[K:bass] x3 | x6 | x6 | x6 ||[K:A] x6 | x6 | x6 | x6 | x6 | x6 | x6 | x6 | x6 | x6 | x6 | x6 || %84
[K:E] x6 | x6 | x6 | x6 | x6 | x6 | x6 | x6 | x6 | x6 | x6 | x6 | x6 | x6 | x6 ||[K:A][M:4/4] x8 | %100
 x8 ||[K:F] x8 | x8 | x8 | x8 | x8 | x8 | x8 | x8 | x8 | x8 | x8 | x8 | x8 | x8 | x8 | x8 | x8 | %118
 x8 | x8 | x8 | x2[K:treble] x6 | x8 | x8 | x8 | x8 | x8 | x8 | x8 | x8 | x8 | x8 | x8 | x8 | x8 | %135
 x8 | x8 | x8 | x8 | x8 | x8 | x8 | x8 | x8 | x8 | x8 | x8 | x8 | x8 | x8 | x8 | x8 |[M:6/8] x6 | %153
 x6 | x6 | x6 | x6 | x6 | x6 | x6 | x6 | x6 | x6 | x2[K:treble] x4 | x6 | x3[K:bass] x3 | x6 | x6 | %168
 x6 | x6 | x6 | x6 | x6 | x6 | x6 | x6 | x3[K:bass] x3 | x6 | x6 | x6 | x6 | x6 | x6 | x6 | x6 | %185
 x6 | x6 | x6 | x6 ||[K:A][M:4/4] x8 | x8 | x8 | x8 | x8 | x8 | x5[K:treble] x3 | x8 | %197
 x2[K:bass] x6 | x8 | x8 | x8 | x8 | x8 | x8 | x8 | x8 | x8 | x8 | x8 | x8 | x8 | x8 | x8 | x8 | %214
 x8 | x8 | x8 | x8 | x8 | x8 | x8 | x8 | x8 | x8 | x8 | x8 | x8 | x8 | x8 | x8 | x8 | x8 | x8 | %233
 x8 | x8 | x8 | x8 | x8 | x8 | x8 | x8 | x8 | x8 | x8 | x8 | x8 | x8 | x8 | x8 | x8 | x8 | x8 | %252
 x8 | x8 | x8 | x8 | x8 ||[K:C][M:2/4] x4 | x4 | x4 | x4 | x4 | x4 | x4 | x4 | x4 | x4 | x4 | x4 | %269
 x4 | x4 | x4 | x4 | x4 | x4 | x4 | x4 | x4 | x4 | x4 | x4 | x4 | x4 | x4 | x4 | x4 | x4 | x4 | %288
 x4 | x4 | x4 | x4 | x4 | x4 ||[M:3/4] x6 | x6 | x6 | x6 | x6 | x6 | x6 | x6 | x6 | x6 | x6 | x6 | %306
 x6 | x6 | x6 | x6 | x6 | F,3 =G,,G,,G,, | x6 | x6 | x6 | x6 | x6 | x6 | x6 | x6 | x6 | x6 | x6 | %323
 x6 | x6 | x6 | x6 | F,3 F,F,F, | x6 | x6 | x6 | x6 | x6 | C,,2 G,,,2 G,,,G,,, | %334
 C,,2 G,,,2 G,,,G,,, | x6 | x6 | x6 | x6 | x6 | C,,2 [C,,E,,]2 [C,,E,,]2 | x6 |] %342

